static/icons/clean.svg

<svg fill="none" height="700" viewBox="0 0 700 700" width="700" xmlns="http://www.w3.org/2000/svg"><rect fill="#dcf2ff" height="700" rx="120" width="700"/><g clip-rule="evenodd" fill-rule="evenodd"><path d="m108.5 292.645c-25.5536-14.548-15.1312-54.302 14.108-53.813l8.617.162c5.009.087 9.95-1.199 14.309-3.722 4.36-2.524 7.979-6.194 10.483-10.629 2.503-4.435 3.8-9.474 3.755-14.595-.045-5.12-1.43-10.135-4.011-14.524l-4.409-7.55c-15.049-25.627 13.471-54.731 38.508-39.365l7.409 4.535c4.294 2.626 9.198 4.032 14.202 4.071 5.004.038 9.928-1.291 14.261-3.85s7.918-6.255 10.384-10.706c2.465-4.451 3.722-9.495 3.639-14.609l-.11-8.818c-.494-29.8713 38.42-40.5341 52.61-14.4l4.194 7.677c2.428 4.479 5.985 8.212 10.302 10.812 4.316 2.6 9.234 3.972 14.244 3.974 5.01.001 9.93-1.367 14.248-3.964s7.877-6.327 10.309-10.804l4.17-7.708c14.235-26.1161 53.132-15.4641 52.654 14.42l-.159 8.806c-.085 5.119 1.173 10.169 3.642 14.624 2.469 4.456 6.06 8.155 10.4 10.714 4.339 2.558 9.27 3.883 14.28 3.837s9.917-1.461 14.211-4.099l7.388-4.505c25.074-15.382 53.551 13.767 38.516 39.355l-4.43 7.544c-2.576 4.389-3.957 9.402-3.999 14.521-.042 5.118 1.256 10.155 3.76 14.587 2.504 4.433 6.123 8.1 10.481 10.622s9.297 3.807 14.304 3.721l8.628-.113c29.228-.505 39.66 39.267 14.09 53.769l-7.512 4.286c-4.382 2.482-8.035 6.117-10.579 10.529-2.544 4.411-3.886 9.438-3.888 14.558-.002 5.121 1.337 10.148 3.878 14.562 2.541 4.413 6.191 8.051 10.572 10.536l7.541 4.262c25.554 14.548 15.131 54.302-14.108 53.813l-8.617-.162c-5.009-.087-9.95 1.199-14.309 3.722-4.36 2.524-7.979 6.193-10.483 10.629-2.503 4.435-3.8 9.474-3.755 14.595.045 5.12 1.43 10.135 4.011 14.523l4.409 7.551c15.049 25.627-37.148 11.474-38.508 39.365l-7.381-4.527c-4.294-2.634-9.2-4.045-14.208-4.088s-9.936 1.284-14.273 3.843-7.926 6.258-10.393 10.712c-2.468 4.454-3.724 9.501-3.64 14.619l.11 8.818c.494 29.871-38.42 40.534-52.61 14.4l-4.194-7.677c-2.428-4.479-5.985-8.212-10.302-10.812-4.316-2.6-9.234-3.972-14.244-3.974-5.01-.001-9.93 1.367-14.248 3.964s-7.877 6.327-10.309 10.804l-4.17 7.708c-14.234 26.116-53.132 15.464-52.654-14.42l.159-8.806c.085-5.119-1.173-10.169-3.642-14.624-2.469-4.456-6.06-8.155-10.4-10.714-4.339-2.558-9.27-3.883-14.28-3.837-5.01.045-9.917 1.461-14.211 4.099l-7.388 4.505c-25.074 15.382-53.551-13.767-38.516-39.355l4.437-7.573c2.57-4.389 3.945-9.4 3.983-14.515.038-5.114-1.262-10.146-3.766-14.575-2.504-4.428-6.121-8.092-10.476-10.612s-9.29-3.804-14.294-3.72l-8.628.113c-29.2276.505-39.6605-39.267-14.09-53.769l7.512-4.286c4.382-2.482 8.035-6.117 10.579-10.529 2.544-4.411 3.886-9.438 3.888-14.558.002-5.121-1.337-10.148-3.878-14.562-2.541-4.413-6.191-8.051-10.572-10.536zm358.127 9.384c2.325 19.652.804 39.58-4.473 58.626l.028.008c-6.333 24.155-18.427 46.062-34.929 63.917l-87.503-110.902 34.845-132.909c12.999 5.178 25.232 12.241 36.314 20.996 15.324 12.106 28.141 27.203 37.706 44.416 9.566 17.212 15.688 36.196 18.012 55.848zm-122.961-129.731-34.846 132.91-130.035 51.277c-5.543-23.879-5.295-49.012 1.033-73.148 4.748-19.191 13.18-37.226 24.807-53.057 11.627-15.832 26.217-29.144 42.921-39.162 16.705-10.018 35.191-16.544 54.385-19.197 13.885-1.919 27.94-1.785 41.735.377zm-154.367 214.49c1.58 3.354 3.287 6.657 5.12 9.903 19.383 34.311 51.307 59.347 88.751 69.601s77.34 4.886 110.911-14.923c3.161-1.865 6.24-3.843 9.235-5.929l-86.074-109.132-.009.031z" fill="#33a1fd"/><path d="m605 505c0 27.848-11.062 54.555-30.754 74.246-19.691 19.692-46.398 30.754-74.246 30.754s-54.555-11.062-74.246-30.754c-19.692-19.691-30.754-46.398-30.754-74.246s11.062-54.555 30.754-74.246c19.691-19.692 46.398-30.754 74.246-30.754s54.555 11.062 74.246 30.754c19.692 19.691 30.754 46.398 30.754 74.246zm-52.106-39.769c-.938-.934-2.054-1.67-3.282-2.163-1.229-.492-2.544-.733-3.867-.706s-2.628.321-3.835.863c-1.207.543-2.293 1.323-3.191 2.295l-45.583 58.078-27.471-27.484c-1.866-1.738-4.334-2.685-6.884-2.64-2.551.045-4.984 1.078-6.787 2.882-1.804 1.803-2.837 4.236-2.882 6.787-.045 2.55.902 5.018 2.64 6.884l34.729 34.742c.936.934 2.05 1.669 3.276 2.163s2.539.736 3.861.712c1.322-.025 2.625-.315 3.832-.854s2.293-1.316 3.193-2.284l52.395-65.494c1.786-1.857 2.773-4.34 2.749-6.917-.025-2.577-1.059-5.041-2.88-6.864z" fill="#69cb84"/></g></svg>

<svg width="700" height="700" viewBox="0 0 700 700" fill="none" xmlns="http://www.w3.org/2000/svg">
<rect width="700" height="700" rx="120" fill="#DCF2FF"/>
<path fill-rule="evenodd" clip-rule="evenodd" d="M108.5 292.645C82.9464 278.097 93.3688 238.343 122.608 238.832L131.225 238.994C136.234 239.081 141.175 237.795 145.534 235.272C149.894 232.748 153.513 229.078 156.017 224.643C158.52 220.208 159.817 215.169 159.772 210.048C159.727 204.928 158.342 199.913 155.761 195.524L151.352 187.974C136.303 162.347 164.823 133.243 189.86 148.609L197.269 153.144C201.563 155.77 206.467 157.176 211.471 157.215C216.475 157.253 221.399 155.924 225.732 153.365C230.065 150.806 233.65 147.11 236.116 142.659C238.581 138.208 239.838 133.164 239.755 128.05L239.645 119.232C239.151 89.3607 278.065 78.6979 292.255 104.832L296.449 112.509C298.877 116.988 302.434 120.721 306.751 123.321C311.067 125.921 315.985 127.293 320.995 127.295C326.005 127.296 330.925 125.928 335.243 123.331C339.561 120.734 343.12 117.004 345.552 112.527L349.722 104.819C363.957 78.7029 402.854 89.3549 402.376 119.239L402.217 128.045C402.132 133.164 403.39 138.214 405.859 142.669C408.328 147.125 411.919 150.824 416.259 153.383C420.598 155.941 425.529 157.266 430.539 157.22C435.549 157.174 440.456 155.759 444.75 153.121L452.138 148.616C477.212 133.234 505.689 162.383 490.654 187.971L486.224 195.515C483.648 199.904 482.267 204.917 482.225 210.036C482.183 215.154 483.481 220.191 485.985 224.623C488.489 229.056 492.108 232.723 496.466 235.245C500.824 237.767 505.763 239.052 510.77 238.966L519.398 238.853C548.626 238.348 559.058 278.12 533.488 292.622L525.976 296.908C521.594 299.39 517.941 303.025 515.397 307.437C512.853 311.848 511.511 316.875 511.509 321.995C511.507 327.116 512.846 332.143 515.387 336.557C517.928 340.97 521.578 344.608 525.959 347.093L533.5 351.355C559.054 365.903 548.631 405.657 519.392 405.168L510.775 405.006C505.766 404.919 500.825 406.205 496.466 408.728C492.106 411.252 488.487 414.921 485.983 419.357C483.48 423.792 482.183 428.831 482.228 433.952C482.273 439.072 483.658 444.087 486.239 448.475L490.648 456.026C505.697 481.653 453.5 467.5 452.14 495.391L444.759 490.864C440.465 488.23 435.559 486.819 430.551 486.776C425.543 486.733 420.615 488.06 416.278 490.619C411.941 493.178 408.352 496.877 405.885 501.331C403.417 505.785 402.161 510.832 402.245 515.95L402.355 524.768C402.849 554.639 363.935 565.302 349.745 539.168L345.551 531.491C343.123 527.012 339.566 523.279 335.249 520.679C330.933 518.079 326.015 516.707 321.005 516.705C315.995 516.704 311.075 518.072 306.757 520.669C302.439 523.266 298.88 526.996 296.448 531.473L292.278 539.181C278.044 565.297 239.146 554.645 239.624 524.761L239.783 515.955C239.868 510.836 238.61 505.786 236.141 501.331C233.672 496.875 230.081 493.176 225.741 490.617C221.402 488.059 216.471 486.734 211.461 486.78C206.451 486.825 201.544 488.241 197.25 490.879L189.862 495.384C164.788 510.766 136.311 481.617 151.346 456.029L155.783 448.456C158.353 444.067 159.728 439.056 159.766 433.941C159.804 428.827 158.504 423.795 156 419.366C153.496 414.938 149.879 411.274 145.524 408.754C141.169 406.234 136.234 404.95 131.23 405.034L122.602 405.147C93.3744 405.652 82.9415 365.88 108.512 351.378L116.024 347.092C120.406 344.61 124.059 340.975 126.603 336.563C129.147 332.152 130.489 327.125 130.491 322.005C130.493 316.884 129.154 311.857 126.613 307.443C124.072 303.03 120.422 299.392 116.041 296.907L108.5 292.645ZM466.627 302.029C468.952 321.681 467.431 341.609 462.154 360.655L462.182 360.663C455.849 384.818 443.755 406.725 427.253 424.58L339.75 313.678L374.595 180.769C387.594 185.947 399.827 193.01 410.909 201.765C426.233 213.871 439.05 228.968 448.615 246.181C458.181 263.393 464.303 282.377 466.627 302.029ZM343.666 172.298L308.82 305.208L178.785 356.485C173.242 332.606 173.49 307.473 179.818 283.337C184.566 264.146 192.998 246.111 204.625 230.28C216.252 214.448 230.842 201.136 247.546 191.118C264.251 181.1 282.737 174.574 301.931 171.921C315.816 170.002 329.871 170.136 343.666 172.298ZM189.299 386.788C190.879 390.142 192.586 393.445 194.419 396.691C213.802 431.002 245.726 456.038 283.17 466.292C320.614 476.546 360.51 471.178 394.081 451.369C397.242 449.504 400.321 447.526 403.316 445.44L317.242 336.308L317.233 336.339L189.299 386.788Z" fill="#33A1FD"/>
<path fill-rule="evenodd" clip-rule="evenodd" d="M605 505C605 532.848 593.938 559.555 574.246 579.246C554.555 598.938 527.848 610 500 610C472.152 610 445.445 598.938 425.754 579.246C406.062 559.555 395 532.848 395 505C395 477.152 406.062 450.445 425.754 430.754C445.445 411.062 472.152 400 500 400C527.848 400 554.555 411.062 574.246 430.754C593.938 450.445 605 477.152 605 505ZM552.894 465.231C551.956 464.297 550.84 463.561 549.612 463.068C548.383 462.576 547.068 462.335 545.745 462.362C544.422 462.389 543.117 462.683 541.91 463.225C540.703 463.768 539.617 464.548 538.719 465.52L493.136 523.598L465.665 496.114C463.799 494.376 461.331 493.429 458.781 493.474C456.23 493.519 453.797 494.552 451.994 496.356C450.19 498.159 449.157 500.592 449.112 503.143C449.067 505.693 450.014 508.161 451.752 510.027L486.481 544.769C487.417 545.703 488.531 546.438 489.757 546.932C490.983 547.426 492.296 547.668 493.618 547.644C494.94 547.619 496.243 547.329 497.45 546.79C498.657 546.251 499.743 545.474 500.643 544.506L553.038 479.012C554.824 477.155 555.811 474.672 555.787 472.095C555.762 469.518 554.728 467.054 552.907 465.231H552.894Z" fill="#69CB84"/>
</svg>
